X: 1
T: Abbots Bromley Horn Dance [Gm]
N: From the Nottingham Music Database
S: EFDSS
M: 6/8
K: Gm
g \
| "Gm"d2g B2g \
| "Gm"d2g G2B \
| "Cm"ABc "Gm"Bcd \
|1,3 "D7"cBA "Gm"B2 \
:|2,4 "D7"cBA "Gm"G2 :|
g \
| "Cm"e2g efg \
| "Cm"c2e cde \
| "F"ABc "Gm"BAG \
| "Dm"FGA D2b \
| "Gm"g2b gab \
| "Cm"e2g efg |
| "Dm"fed cBA \
| "Gm"G3 G2 |: \
c \
| "Gm"ded "Cm"e3 \
| "Gm"ded "Cm"g3 \
| "Gm"ded "D7"cBA \
|1 "Gm"B3 "D7"B2 \
:|2 "Gm"G3 G2 |]
